!!!OTL: Chhoung
!!!XEN: The Scarf Ball
!! From Sam-Ang Sam & Patricia Shehan Campbell,
!! "Silent Temples, Songful Hearts: Traditional Music of Cambodia"
!! Danbury CT: World Music Press, 1991
!! page 72
!! Genre: Scarf game songs
**kern	**silbe
*clefG2	*LKhmer
*k[]	*VCmen
!	! "Men"
*M4/4	*
{(8f	Eu
8g)	|
=1	=1
(8g	euy
8a	|
16g	|
16cc)	|
8f	bang
(8f	bah
8a)	|
4g	chhoung
=2	=2
8g}	teou
{8a	thlai
8f	euy
8a	chhoung
8g	teu
8f	leu
(8d	chong
8f)	|
=3	=3
(4c	daung
8f)}	|
{8f	kra-
4c	-momm
(8d	chhor
8f)	|
=4	=4
8f	chraung
8d	thlai
8f	euy
8a	chaim
(8g	chapp
8f)	|
(8d	chhoung
8f)	|
=5	=5
*	*Lvocables
2.c	bang.
{4f	Eu
=6	=6
4g	euy
8g	o
8f	na
4d	keo
8f	keo
8g	pi
=7	=7
4.g	a
8g	o
8g	na
[8a	na
16a]	|
16f	na
8g	keo
=8	=8
2.d}	euy.
==	==
*-	*-
